src/assets/icons/money.svg

<svg width="24" height="24" viewBox="0 0 24 24" fill="none" xmlns="http://www.w3.org/2000/svg">
<g clip-path="url(#clip0)">
<path d="M20.3922 8.02002C20.3919 8.02002 20.3916 8.02002 20.3914 8.02002H0.343619C0.154067 8.01982 0.000200674 8.17328 1.96195e-07 8.36284C1.96195e-07 8.36309 1.96195e-07 8.36339 1.96195e-07 8.36364V17.9866C-0.000200282 18.1761 0.153265 18.33 0.342817 18.3302C0.343068 18.3302 0.343368 18.3302 0.343619 18.3302H13.9761C14.1659 18.3302 14.3197 18.1763 14.3197 17.9866C14.3197 17.7968 14.1659 17.643 13.9761 17.643H0.687238V8.70726H20.0478V9.56651C20.0476 9.75606 20.201 9.90992 20.3906 9.91012C20.3908 9.91012 20.3911 9.91012 20.3914 9.91012C20.5809 9.91033 20.7348 9.75686 20.735 9.56731C20.735 9.56706 20.735 9.56676 20.735 9.56651V8.36364C20.7352 8.17409 20.5817 8.02027 20.3922 8.02002Z" fill="white"/>
<path d="M18.0611 6.42466L2.02285 2.81605C1.93384 2.79616 1.84057 2.8123 1.76343 2.86096C1.6864 2.91003 1.63192 2.98756 1.61187 3.07668L0.80996 6.68528C0.768762 6.87062 0.88564 7.05426 1.07098 7.09545C1.25632 7.13665 1.43996 7.01977 1.48116 6.83443L2.20809 3.56223L17.9103 7.09505C17.9352 7.10082 17.9606 7.10367 17.9861 7.10347C18.1758 7.10312 18.3294 6.949 18.3291 6.75925C18.3288 6.59882 18.2175 6.45999 18.0611 6.42466Z" fill="white"/>
<path d="M16.1136 4.43619L6.49064 0.426635C6.32339 0.356919 6.13068 0.428539 6.04959 0.590626L5.24768 2.19445C5.15711 2.36195 5.21946 2.5712 5.38701 2.66176C5.55451 2.75233 5.76376 2.68998 5.85432 2.52243C5.85788 2.51586 5.86124 2.50915 5.86435 2.50233V2.50313L6.52232 1.1864L15.8481 5.07206C16.0238 5.14533 16.2255 5.06243 16.2988 4.88682C16.3721 4.7113 16.2892 4.50952 16.1136 4.43619Z" fill="white"/>
<path d="M16.3566 9.62378H13.1742C12.9844 9.62378 12.8306 9.77765 12.8306 9.9674C12.8306 10.1572 12.9844 10.311 13.1742 10.311H16.3566C16.5463 10.311 16.7002 10.1572 16.7002 9.9674C16.7002 9.77765 16.5463 9.62378 16.3566 9.62378Z" fill="white"/>
<path d="M9.96658 9.64661C8.01789 9.64661 6.43817 11.2263 6.43817 13.175C6.44018 15.1228 8.01874 16.7014 9.96658 16.7034C11.9153 16.7034 13.495 15.1237 13.495 13.175C13.495 11.2263 11.9153 9.64661 9.96658 9.64661ZM9.96658 16.0619C8.37218 16.0619 7.0797 14.7694 7.0797 13.175C7.08145 11.5814 8.37293 10.2899 9.96658 10.2881C11.561 10.2881 12.8535 11.5806 12.8535 13.175C12.8535 14.7694 11.561 16.0619 9.96658 16.0619Z" fill="white"/>
<path d="M19.5895 10.7693C17.4644 10.7693 15.179 11.2713 15.179 12.3731V21.996C15.179 23.0979 17.4644 23.5999 19.5895 23.5999C21.7145 23.5999 24 23.0979 24 21.996V12.3731C24 11.2713 21.7145 10.7693 19.5895 10.7693ZM23.1981 21.99C23.1375 22.2126 21.9351 22.7979 19.5895 22.7979C17.2439 22.7979 16.0414 22.2126 15.9809 21.996V21.3657C16.8341 21.7956 18.2435 21.996 19.5895 21.996C20.9355 21.996 22.3452 21.7936 23.1981 21.3653V21.99ZM23.1981 20.3862C23.1375 20.6087 21.9351 21.1941 19.5895 21.1941C17.2439 21.1941 16.0414 20.6087 15.9809 20.3922V19.7619C16.8341 20.1917 18.2435 20.3922 19.5895 20.3922C20.9355 20.3922 22.3452 20.1897 23.1981 19.7615V20.3862ZM23.1981 18.7824C23.1375 19.0049 21.9351 19.5903 19.5895 19.5903C17.2439 19.5903 16.0414 19.0049 15.9809 18.7884V18.1581C16.8341 18.5879 18.2435 18.7884 19.5895 18.7884C20.9355 18.7884 22.3452 18.5859 23.1981 18.1577V18.7824ZM23.1981 17.1786C23.1375 17.4011 21.9351 17.9865 19.5895 17.9865C17.2439 17.9865 16.0414 17.4011 15.9809 17.1846V16.5543C16.8341 16.9841 18.2435 17.1846 19.5895 17.1846C20.9355 17.1846 22.3452 16.9821 23.1981 16.5539V17.1786ZM23.1981 15.5747C23.1375 15.7973 21.9351 16.3827 19.5895 16.3827C17.2439 16.3827 16.0414 15.7973 15.9809 15.5807V14.9504C16.8341 15.3783 18.2435 15.5807 19.5895 15.5807C20.9355 15.5807 22.3452 15.3783 23.1981 14.95V15.5747ZM23.1981 13.9709C23.1375 14.1934 21.9351 14.7788 19.5895 14.7788C17.2439 14.7788 16.0414 14.1934 15.9809 13.9769V13.3466C16.8341 13.7744 18.2435 13.9769 19.5895 13.9769C20.9355 13.9769 22.3452 13.7744 23.1981 13.3462V13.9709ZM19.5895 13.175C17.2475 13.175 16.0454 12.5912 15.9809 12.3803V12.3779C16.0454 12.1546 17.2475 11.5712 19.5895 11.5712C21.915 11.5712 23.1179 12.1462 23.1981 12.3731C23.1179 12.6 21.915 13.175 19.5895 13.175Z" fill="white"/>
<path d="M6.75888 16.0387H3.72806L2.29103 14.4669V11.8607L3.87802 10.311H6.75888C6.94863 10.311 7.1025 10.1572 7.1025 9.9674C7.1025 9.77765 6.94863 9.62378 6.75888 9.62378H3.73848C3.64867 9.62358 3.56231 9.65856 3.49791 9.72121L1.70684 11.4682C1.63993 11.5464 1.60324 11.6459 1.60339 11.7488V14.6004C1.60339 14.6862 1.63542 14.7688 1.69321 14.8322L3.32229 16.614C3.3874 16.6853 3.47952 16.7259 3.5761 16.7259H6.75888C6.94863 16.7259 7.1025 16.572 7.1025 16.3823C7.1025 16.1925 6.94868 16.0387 6.75888 16.0387Z" fill="white"/>
<path d="M10.167 12.7741H9.76606C9.64136 12.7741 9.56558 12.7043 9.56558 12.6738C9.56558 12.6434 9.64136 12.5736 9.76606 12.5736H10.7684C10.9899 12.5736 11.1694 12.3941 11.1694 12.1726C11.1694 11.9512 10.9899 11.7717 10.7684 11.7717H10.3675C10.3675 11.5503 10.188 11.3707 9.96654 11.3707C9.74511 11.3707 9.56558 11.5503 9.56558 11.7717V11.7897C9.12087 11.8525 8.78397 12.2232 8.76367 12.6718C8.79239 13.1975 9.24016 13.6014 9.76606 13.576H10.167C10.2917 13.576 10.3675 13.6457 10.3675 13.6762C10.3675 13.7067 10.2917 13.7765 10.167 13.7765H9.16463C8.9432 13.7765 8.76367 13.956 8.76367 14.1774C8.76367 14.3988 8.9432 14.5784 9.16463 14.5784H9.56558C9.56558 14.7998 9.74511 14.9793 9.96654 14.9793C10.188 14.9793 10.3675 14.7998 10.3675 14.5784V14.5603C10.8122 14.4975 11.1491 14.1269 11.1694 13.6782C11.1407 13.1525 10.6929 12.7486 10.167 12.7741Z" fill="white"/>
</g>
<defs>
<clipPath id="clip0">
<rect width="24" height="24" fill="white"/>
</clipPath>
</defs>
</svg>

<svg xmlns="http://www.w3.org/2000/svg" width="24" height="24" fill="none" xmlns:v="https://vecta.io/nano"><g clip-path="url(#A)" fill="#fff"><path d="M20.392 8.02H.344c-.19 0-.343.153-.344.343v9.624c0 .19.153.343.343.344h13.633c.19 0 .344-.154.344-.344s-.154-.344-.344-.344H.687V8.707h19.361v.859c0 .19.153.343.343.344s.344-.153.344-.343V8.364c0-.19-.153-.343-.343-.344zm-2.331-1.595L2.023 2.816c-.089-.02-.182-.004-.259.045s-.132.127-.152.216L.81 6.685c-.041.185.076.369.261.41s.369-.076.41-.261l.727-3.272L17.91 7.095c.025.006.05.009.076.008.19 0 .343-.154.343-.344 0-.16-.112-.299-.268-.335zm-1.947-1.989L6.491.427c-.167-.07-.36.002-.441.164l-.802 1.604c-.091.168-.028.377.139.467s.377.028.467-.139l.01-.02v.001l.658-1.317 9.326 3.886c.176.073.377-.01.451-.185s-.01-.377-.185-.451zm.243 5.188h-3.182c-.19 0-.344.154-.344.344s.154.344.344.344h3.182c.19 0 .344-.154.344-.344s-.154-.344-.344-.344zm-6.39.023a3.53 3.53 0 0 0-3.528 3.528c.002 1.948 1.581 3.526 3.528 3.528a3.53 3.53 0 0 0 3.528-3.528 3.53 3.53 0 0 0-3.528-3.528zm0 6.415a2.89 2.89 0 0 1-2.887-2.887 2.89 2.89 0 0 1 2.887-2.887 2.89 2.89 0 0 1 2.887 2.887 2.89 2.89 0 0 1-2.887 2.887zm9.623-5.293c-2.125 0-4.411.502-4.411 1.604v9.623c0 1.102 2.285 1.604 4.411 1.604S24 23.098 24 21.996v-9.623c0-1.102-2.285-1.604-4.41-1.604zm3.609 11.221c-.061.223-1.263.808-3.609.808s-3.548-.585-3.609-.802v-.63c.853.43 2.263.63 3.609.63s2.756-.202 3.609-.631v.625zm0-1.604c-.061.223-1.263.808-3.609.808s-3.548-.585-3.609-.802v-.63c.853.43 2.263.63 3.609.63s2.756-.203 3.609-.631v.625zm0-1.604c-.061.223-1.263.808-3.609.808s-3.548-.585-3.609-.802v-.63c.853.43 2.263.63 3.609.63s2.756-.203 3.609-.631v.625zm0-1.604c-.061.223-1.263.808-3.609.808s-3.548-.585-3.609-.802v-.63c.853.43 2.263.63 3.609.63s2.756-.203 3.609-.631v.625zm0-1.604c-.061.223-1.263.808-3.609.808s-3.548-.585-3.609-.802v-.63c.853.428 2.263.63 3.609.63s2.756-.202 3.609-.631v.625zm0-1.604c-.061.223-1.263.808-3.609.808s-3.548-.585-3.609-.802v-.63c.853.428 2.263.63 3.609.63s2.756-.203 3.609-.631v.625zm-3.609-.796c-2.342 0-3.544-.584-3.609-.795v-.002c.065-.223 1.267-.807 3.609-.807 2.325 0 3.528.575 3.609.802-.08.227-1.283.802-3.609.802zM6.759 16.039H3.728l-1.437-1.572v-2.606l1.587-1.55h2.881c.19 0 .344-.154.344-.344s-.154-.344-.344-.344h-3.02a.35.35 0 0 0-.241.097l-1.791 1.747a.43.43 0 0 0-.103.281V14.6c0 .086.032.168.09.232l1.629 1.782c.065.071.157.112.254.112H6.76c.19 0 .344-.154.344-.344s-.154-.344-.344-.344zm3.408-3.265h-.401c-.125 0-.2-.07-.2-.1s.076-.1.2-.1h1.002a.401.401 0 1 0 0-.802h-.401a.401.401 0 1 0-.802 0v.018c-.445.063-.782.434-.802.882a.96.96 0 0 0 1.002.904h.401c.125 0 .2.07.2.1s-.076.1-.2.1H9.165a.401.401 0 1 0 0 .802h.401a.401.401 0 1 0 .802 0v-.018c.445-.063.782-.433.802-.882a.96.96 0 0 0-1.002-.904z"/></g><defs><clipPath id="A"><path fill="#fff" d="M0 0h24v24H0z"/></clipPath></defs></svg>
